archdroid-icon-theme/Archdroid-Amber/mimetypes/scalable/image-png.svg

<?xml version="1.0" encoding="UTF-8" standalone="no"?>
<svg
   xmlns:dc="http://purl.org/dc/elements/1.1/"
   xmlns:cc="http://creativecommons.org/ns#"
   xmlns:rdf="http://www.w3.org/1999/02/22-rdf-syntax-ns#"
   xmlns:svg="http://www.w3.org/2000/svg"
   xmlns="http://www.w3.org/2000/svg"
   xmlns:sodipodi="http://sodipodi.sourceforge.net/DTD/sodipodi-0.dtd"
   xmlns:inkscape="http://www.inkscape.org/namespaces/inkscape"
   fill="#673AB7"
   width="48"
   height="48"
   viewBox="0 0 48 48"
   id="svg2"
   version="1.1"
   inkscape:version="0.91 r13725"
   sodipodi:docname="image-png.svg">
  <metadata
     id="metadata10">
    <rdf:RDF>
      <cc:Work
         rdf:about="">
        <dc:format>image/svg+xml</dc:format>
        <dc:type
           rdf:resource="http://purl.org/dc/dcmitype/StillImage" />
        <dc:title></dc:title>
      </cc:Work>
    </rdf:RDF>
  </metadata>
  <defs
     id="defs8" />
  <sodipodi:namedview
     pagecolor="#ffffff"
     bordercolor="#666666"
     borderopacity="1"
     objecttolerance="10"
     gridtolerance="10"
     guidetolerance="10"
     inkscape:pageopacity="0"
     inkscape:pageshadow="2"
     inkscape:window-width="1366"
     inkscape:window-height="713"
     id="namedview6"
     showgrid="false"
     inkscape:zoom="4.9166667"
     inkscape:cx="24.074825"
     inkscape:cy="24.050928"
     inkscape:window-x="0"
     inkscape:window-y="30"
     inkscape:window-maximized="1"
     inkscape:current-layer="svg2"
     inkscape:snap-bbox="true"
     inkscape:bbox-paths="true"
     inkscape:bbox-nodes="true"
     inkscape:snap-bbox-edge-midpoints="true" />
  <path
     d="M 10 6 C 7.79 6 6 7.79 6 10 L 6 38 C 6 40.21 7.79 42 10 42 L 38 42 C 40.21 42 42 40.21 42 38 L 42 10 C 42 7.79 40.21 6 38 6 L 10 6 z M 17.365234 11.734375 C 18.179036 11.734375 18.812012 12.058105 19.263672 12.705078 C 19.719401 13.347982 19.947266 14.196126 19.947266 15.25 L 19.947266 15.378906 C 19.947266 16.339193 19.721191 17.113118 19.269531 17.703125 C 18.817871 18.293132 18.188477 18.589844 17.382812 18.589844 C 17.008464 18.589844 16.677572 18.520996 16.388672 18.386719 C 16.099772 18.252441 15.852051 18.055339 15.644531 17.794922 L 15.644531 21 L 14.160156 21 L 14.160156 11.857422 L 15.412109 11.857422 L 15.558594 12.6875 C 15.770182 12.378255 16.025228 12.141276 16.322266 11.978516 C 16.623372 11.815755 16.97054 11.734375 17.365234 11.734375 z M 24.591797 11.734375 C 25.27946 11.734375 25.814779 11.944173 26.197266 12.363281 C 26.583822 12.77832 26.777344 13.427572 26.777344 14.310547 L 26.777344 18.460938 L 25.292969 18.460938 L 25.292969 14.322266 C 25.292969 13.825846 25.189941 13.475098 24.982422 13.267578 C 24.778971 13.05599 24.467936 12.949219 24.048828 12.949219 C 23.759928 12.949219 23.501302 13.014323 23.273438 13.144531 C 23.045573 13.270671 22.859375 13.446126 22.712891 13.669922 L 22.712891 18.460938 L 21.228516 18.460938 L 21.228516 11.857422 L 22.583984 11.857422 L 22.669922 12.808594 C 22.885579 12.470866 23.154948 12.208659 23.480469 12.021484 C 23.810059 11.830241 24.180827 11.734375 24.591797 11.734375 z M 30.658203 11.734375 C 31.052897 11.734375 31.400228 11.821289 31.697266 11.992188 C 31.998372 12.159017 32.251465 12.399414 32.458984 12.716797 L 32.605469 11.857422 L 33.839844 11.857422 L 33.839844 18.460938 C 33.839844 19.311361 33.575684 19.967773 33.050781 20.431641 C 32.525879 20.895508 31.782715 21.128906 30.818359 21.128906 C 30.496908 21.128906 30.147786 21.081868 29.773438 20.988281 C 29.403158 20.898763 29.068685 20.777507 28.767578 20.626953 L 29.083984 19.460938 C 29.328125 19.587077 29.597656 19.684733 29.890625 19.753906 C 30.187663 19.827148 30.491374 19.865234 30.804688 19.865234 C 31.341797 19.865234 31.736165 19.749512 31.984375 19.517578 C 32.232585 19.289714 32.355469 18.937012 32.355469 18.460938 L 32.355469 17.783203 C 32.147949 18.047689 31.902018 18.248372 31.617188 18.386719 C 31.336426 18.520996 31.012695 18.589844 30.646484 18.589844 C 29.836751 18.589844 29.201986 18.293132 28.742188 17.703125 C 28.282389 17.113118 28.052734 16.339193 28.052734 15.378906 L 28.052734 15.25 C 28.052734 14.200195 28.282389 13.352051 28.742188 12.705078 C 29.201986 12.058105 29.840332 11.734375 30.658203 11.734375 z M 16.951172 12.949219 C 16.641927 12.949219 16.37972 13.016113 16.164062 13.150391 C 15.948405 13.280599 15.77474 13.463216 15.644531 13.699219 L 15.644531 16.685547 C 15.77474 16.91748 15.948405 17.096517 16.164062 17.222656 C 16.37972 17.344727 16.645508 17.404297 16.962891 17.404297 C 17.467448 17.404297 17.843587 17.219889 18.091797 16.849609 C 18.344076 16.47526 18.470703 15.985189 18.470703 15.378906 L 18.470703 15.25 C 18.470703 14.574544 18.342285 14.022949 18.085938 13.595703 C 17.833659 13.164388 17.455729 12.949219 16.951172 12.949219 z M 31.037109 12.949219 C 30.528483 12.949219 30.150553 13.162598 29.902344 13.589844 C 29.658203 14.01709 29.535156 14.570475 29.535156 15.25 L 29.535156 15.378906 C 29.535156 15.985189 29.656413 16.47168 29.896484 16.837891 C 30.140625 17.200033 30.516764 17.380859 31.025391 17.380859 C 31.342773 17.380859 31.608561 17.315755 31.824219 17.185547 C 32.043945 17.05127 32.221191 16.859538 32.355469 16.611328 L 32.355469 13.71875 C 32.217122 13.478678 32.038086 13.290527 31.818359 13.15625 C 31.602702 13.017904 31.342285 12.949219 31.037109 12.949219 z M 29 24 L 38 36 L 10 36 L 17 27 L 22 33.009766 L 29 24 z "
     id="path4163" />
</svg>

<svg xmlns="http://www.w3.org/2000/svg" fill="#673AB7" viewBox="0 0 48 48"><path d="m10 6c-2.21 0-4 1.79-4 4v28c0 2.21 1.79 4 4 4h28c2.21 0 4-1.79 4-4v-28c0-2.21-1.79-4-4-4h-28m7.365 5.734c.814 0 1.447.324 1.898.971.456.643.684 1.491.684 2.545v.129c0 .96-.226 1.734-.678 2.324-.452.59-1.081.887-1.887.887-.374 0-.705-.069-.994-.203-.289-.134-.537-.331-.744-.592v3.205h-1.484v-9.143h1.252l.146.83c.212-.309.467-.546.764-.709.301-.163.648-.244 1.043-.244m7.227 0c.688 0 1.223.21 1.605.629.387.415.58 1.064.58 1.947v4.15h-1.484v-4.139c0-.496-.103-.847-.311-1.055-.203-.212-.514-.318-.934-.318-.289 0-.548.065-.775.195-.228.126-.414.302-.561.525v4.791h-1.484v-6.604h1.355l.086.951c.216-.338.485-.6.811-.787.33-.191.7-.287 1.111-.287m6.07 0c.395 0 .742.087 1.039.258.301.167.554.407.762.725l.146-.859h1.234v6.604c0 .85-.264 1.507-.789 1.971-.525.464-1.268.697-2.232.697-.321 0-.671-.047-1.045-.141-.37-.09-.705-.211-1.01-.361l.316-1.166c.244.126.514.224.807.293.297.073.601.111.914.111.537 0 .931-.116 1.18-.348.248-.228.371-.581.371-1.057v-.678c-.208.264-.453.465-.738.604-.281.134-.604.203-.971.203-.81 0-1.444-.297-1.904-.887-.46-.59-.689-1.364-.689-2.324v-.129c0-1.05.23-1.898.689-2.545.46-.647 1.098-.971 1.916-.971m-13.707 1.215c-.309 0-.571.067-.787.201-.216.13-.389.313-.52.549v2.986c.13.232.304.411.52.537.216.122.481.182.799.182.505 0 .881-.184 1.129-.555.252-.374.379-.864.379-1.471v-.129c0-.675-.128-1.227-.385-1.654-.252-.431-.63-.646-1.135-.646m14.09 0c-.509 0-.887.213-1.135.641-.244.427-.367.981-.367 1.66v.129c0 .606.121 1.093.361 1.459.244.362.62.543 1.129.543.317 0 .583-.065.799-.195.22-.134.397-.326.531-.574v-2.893c-.138-.24-.317-.428-.537-.563-.216-.138-.476-.207-.781-.207m-2.037 11.05l9 12h-28l7-9 5 6.01 7-9.01"/></svg>
